static/img/kroki/83eb20c96283e5729454071fab89d9b9.svg

<?xml version="1.0" encoding="us-ascii" standalone="no"?><svg xmlns="http://www.w3.org/2000/svg" xmlns:xlink="http://www.w3.org/1999/xlink" contentStyleType="text/css" height="152px" preserveAspectRatio="none" style="width:304px;height:152px;" version="1.1" viewBox="0 0 304 152" width="304px" zoomAndPan="magnify"><defs/><g><!--class aws_apigateway_deployment--><g id="elem_aws_apigateway_deployment"><rect codeLine="22" fill="#3D176E" height="39.7891" id="aws_apigateway_deployment" rx="2.5" ry="2.5" style="stroke:#000D19;stroke-width:0.5;" width="290" x="7" y="7"/><ellipse cx="22" cy="26.8945" fill="#ADD1B2" rx="11" ry="11" style="stroke:#181818;stroke-width:1.0;"/><path d="M24.9688,32.5352 Q24.3906,32.832 23.75,32.9727 Q23.1094,33.1289 22.4063,33.1289 Q19.9063,33.1289 18.5781,31.4883 Q17.2656,29.832 17.2656,26.707 Q17.2656,23.582 18.5781,21.9258 Q19.9063,20.2695 22.4063,20.2695 Q23.1094,20.2695 23.75,20.4258 Q24.4063,20.582 24.9688,20.8789 L24.9688,23.5977 Q24.3438,23.0195 23.75,22.7539 Q23.1563,22.4727 22.5313,22.4727 Q21.1875,22.4727 20.5,23.5508 Q19.8125,24.6133 19.8125,26.707 Q19.8125,28.8008 20.5,29.8789 Q21.1875,30.9414 22.5313,30.9414 Q23.1563,30.9414 23.75,30.6758 Q24.3438,30.3945 24.9688,29.8164 L24.9688,32.5352 Z " fill="#000000"/><text fill="#D9B8FF" font-family="Helvetica" font-size="17" lengthAdjust="spacing" textLength="248" x="41" y="32.7798">aws_apigateway_deployment</text></g><!--class aws_apigateway_stage--><g id="elem_aws_apigateway_stage"><rect codeLine="24" fill="#3D176E" height="39.7891" id="aws_apigateway_stage" rx="2.5" ry="2.5" style="stroke:#000D19;stroke-width:0.5;" width="235" x="34.5" y="106.79"/><ellipse cx="49.5" cy="126.6845" fill="#ADD1B2" rx="11" ry="11" style="stroke:#181818;stroke-width:1.0;"/><path d="M52.4688,132.3252 Q51.8906,132.622 51.25,132.7627 Q50.6094,132.9189 49.9063,132.9189 Q47.4063,132.9189 46.0781,131.2783 Q44.7656,129.622 44.7656,126.497 Q44.7656,123.372 46.0781,121.7158 Q47.4063,120.0595 49.9063,120.0595 Q50.6094,120.0595 51.25,120.2158 Q51.9063,120.372 52.4688,120.6689 L52.4688,123.3877 Q51.8438,122.8095 51.25,122.5439 Q50.6563,122.2627 50.0313,122.2627 Q48.6875,122.2627 48,123.3408 Q47.3125,124.4033 47.3125,126.497 Q47.3125,128.5908 48,129.6689 Q48.6875,130.7314 50.0313,130.7314 Q50.6563,130.7314 51.25,130.4658 Q51.8438,130.1845 52.4688,129.6064 L52.4688,132.3252 Z " fill="#000000"/><text fill="#D9B8FF" font-family="Helvetica" font-size="17" lengthAdjust="spacing" textLength="193" x="68.5" y="132.5698">aws_apigateway_stage</text></g><!--link aws_apigateway_deployment to aws_apigateway_stage--><g id="link_aws_apigateway_deployment_aws_apigateway_stage"><path codeLine="26" d="M152,47.22 C152,64.36 152,83.27 152,100.41 " fill="none" id="aws_apigateway_deployment-to-aws_apigateway_stage" style="stroke:#1A83AF;stroke-width:2.0;"/><polygon fill="#1A83AF" points="152,106.41,156,97.41,152,101.41,148,97.41,152,106.41" style="stroke:#1A83AF;stroke-width:2.0;"/></g><!--SRC=[XP9DIyD048Rl_HKBEHSIYoQz26cXwAM8zIPIfjdPP4co6sQdXYZ-T_kXiYRzkCxxpCpx3bDeYGBhXZjHOxr1SYDNQjC0GIrI8jlERML914g1ciHzSM4DNmMMKADumEeTMMVG9ruAdPK6dHCtdZI3hCp9ReqyZcS2utOI6lQeUGNEfSoaDrj6puoSRXAb-cH_Q32HKNo70yoIHFf1mZ2KqRIFN5rrCVSViT8VA2B_Q4lBEB0vM76WBhhS4vx9GT1V_Qp79v1IcrpSUhNdeoSoIF_ggmAaRVUqWihvQnmZeUMkmVaW5KuJgUAJyECvEDjVJa3hrj3e71XRwDOIcyfszUurnEVewpJZ678yoEURnwz1b2QJTF4slZ_P_mq0]--></g></svg>

<svg xmlns="http://www.w3.org/2000/svg" width="304" height="152" viewBox="0 0 304 152"><rect width="290" height="39.789" x="7" y="7" fill="#3D176E" rx="2.5" ry="2.5" style="stroke:#000d19;stroke-width:.5"/><circle cx="22" cy="26.895" r="11" fill="#ADD1B2" style="stroke:#181818;stroke-width:1"/><path d="M24.969 32.535q-.578.297-1.219.438-.64.156-1.344.156-2.5 0-3.828-1.64-1.312-1.657-1.312-4.782t1.312-4.781q1.328-1.656 3.828-1.656.703 0 1.344.156.656.156 1.219.453v2.719q-.625-.578-1.219-.844-.594-.281-1.219-.281-1.343 0-2.031 1.078-.687 1.062-.687 3.156t.687 3.172q.688 1.062 2.031 1.062.625 0 1.219-.265.594-.281 1.219-.86z"/><text x="41" y="32.78" fill="#D9B8FF" font-family="Helvetica" font-size="17" textLength="248">aws_apigateway_deployment</text><rect width="235" height="39.789" x="34.5" y="106.79" fill="#3D176E" rx="2.5" ry="2.5" style="stroke:#000d19;stroke-width:.5"/><circle cx="49.5" cy="126.684" r="11" fill="#ADD1B2" style="stroke:#181818;stroke-width:1"/><path d="M52.469 132.325q-.578.297-1.219.438-.64.156-1.344.156-2.5 0-3.828-1.64-1.312-1.657-1.312-4.782t1.312-4.781q1.328-1.656 3.828-1.656.703 0 1.344.156.656.156 1.219.453v2.719q-.625-.579-1.219-.844-.594-.281-1.219-.281-1.343 0-2.031 1.078-.687 1.062-.687 3.156t.687 3.172q.688 1.062 2.031 1.062.625 0 1.219-.265.594-.281 1.219-.86z"/><text x="68.5" y="132.57" fill="#D9B8FF" font-family="Helvetica" font-size="17" textLength="193">aws_apigateway_stage</text><path fill="none" d="M152 47.22v53.19" style="stroke:#1a83af;stroke-width:2"/><path fill="#1A83AF" d="m152 106.41 4-9-4 4-4-4z" style="stroke:#1a83af;stroke-width:2"/></svg>
